src/assets/icon/icon-social-twitter.svg

<svg height="19" viewBox="0 0 23 19" width="23" xmlns="http://www.w3.org/2000/svg"><path d="m22.8525641 2.410625c-.8353718.372875-1.7329615.62492188-2.6753718.73803125.9615769-.58039062 1.7005256-1.49951562 2.0478846-2.59409375-.8999487.53734375-1.8972051.92803125-2.957859 1.137625-.8495256-.9108125-2.0602692-1.4808125-3.4001666-1.4808125-2.5724616 0-4.6583846 2.0995-4.6583846 4.69003125 0 .36723438.041282.7255625.1208974 1.06904688-3.87166666-.19564063-7.30397436-2.06298438-9.60161538-4.9008125-.40102564.69290625-.63073077 1.49892187-.63073077 2.35807812 0 1.62717188.82239743 3.06226563 2.07235897 3.90360938-.76342307-.02464063-1.48173077-.23571875-2.10980769-.586625-.00058974.01959375-.00058974.03889062-.00058974.05907812 0 2.2716875 1.60557692 4.16723435 3.73632051 4.59859375-.39070513.1065781-.80205128.1641719-1.22696154.1641719-.30047436 0-.59210256-.0290938-.87665384-.0840156.5926923 1.8628906 2.31297435 3.2193125 4.35142307 3.2573125-1.59437179 1.2575625-3.60274359 2.0077656-5.78538461 2.0077656-.37596154 0-.74661539-.0219688-1.1113718-.0656094 2.06144872 1.3305938 4.5100641 2.106625 7.14061539 2.106625 8.56838463 0 13.25389743-7.1460781 13.25389743-13.34304687 0-.2030625-.0047179-.40582813-.0135641-.60740625.910859-.66084375 1.7008205-1.48704688 2.3250641-2.42754688z" fill="#fff" fill-rule="evenodd" transform=""/></svg>

<?xml version="1.0" encoding="UTF-8"?>
<svg width="23px" height="19px" viewBox="0 0 23 19" version="1.1" xmlns="http://www.w3.org/2000/svg" xmlns:xlink="http://www.w3.org/1999/xlink">
    <!-- Generator: Sketch 50.2 (55047) - http://www.bohemiancoding.com/sketch -->
    <title>fi-social-twitter copy</title>
    <desc>Created with Sketch.</desc>
    <defs></defs>
    <g id="AAC" stroke="none" stroke-width="1" fill="none" fill-rule="evenodd">
        <g id="AAC-Mobile" transform="translate(-43.000000, -6938.000000)" fill="#FFFFFF">
            <g id="footer" transform="translate(-1.000000, 6738.000000)">
                <g id="Group-16" transform="translate(12.000000, 103.000000)">
                    <g id="social-icons" transform="translate(0.000000, 96.000000)">
                        <g id="fi-social-twitter-copy" transform="translate(32.000000, 1.000000)">
                            <g id="Layer_1">
                                <path d="M22.8525641,2.410625 C22.0171923,2.7835 21.1196026,3.03554688 20.1771923,3.14865625 C21.1387692,2.56826563 21.8777179,1.64914063 22.2250769,0.5545625 C21.3251282,1.09190625 20.3278718,1.48259375 19.2672179,1.6921875 C18.4176923,0.781375 17.2069487,0.211375 15.8670513,0.211375 C13.2945897,0.211375 11.2086667,2.310875 11.2086667,4.90140625 C11.2086667,5.26864063 11.2499487,5.62696875 11.3295641,5.97045313 C7.45789744,5.7748125 4.02558974,3.90746875 1.72794872,1.06964063 C1.32692308,1.76254688 1.09721795,2.5685625 1.09721795,3.42771875 C1.09721795,5.05489063 1.91961538,6.48998438 3.16957692,7.33132813 C2.40615385,7.3066875 1.68784615,7.09560938 1.05976923,6.74470313 C1.05917949,6.76429688 1.05917949,6.78359375 1.05917949,6.80378125 C1.05917949,9.07546875 2.66475641,10.9710156 4.7955,11.402375 C4.40479487,11.5089531 3.99344872,11.5665469 3.56853846,11.5665469 C3.2680641,11.5665469 2.9764359,11.5374531 2.69188462,11.4825313 C3.28457692,13.3454219 5.00485897,14.7018438 7.04330769,14.7398438 C5.4489359,15.9974063 3.4405641,16.7476094 1.25792308,16.7476094 C0.881961538,16.7476094 0.511307692,16.7256406 0.146551282,16.682 C2.208,18.0125938 4.65661538,18.788625 7.28716667,18.788625 C15.8555513,18.788625 20.5410641,11.6425469 20.5410641,5.44557813 C20.5410641,5.24251563 20.5363462,5.03975 20.5275,4.83817188 C21.438359,4.17732813 22.2283205,3.351125 22.8525641,2.410625 L22.8525641,2.410625 Z" id="Shape"></path>
                            </g>
                        </g>
                    </g>
                </g>
            </g>
        </g>
    </g>
</svg>
